X: 36849
T: Ships Are Sailing, The
R: reel
M: 4/4
K: Edorian
|:Beed BcdB|AD D/D/D FD D/D/D|E^DEF GFGA|Beef gfed|
Beed BcdB|ADFD BDAD|E3F GFGA|1 Beed ~e3 d:|2 Beed ~e3 f||
|:~g3a bgeg|~f3g afdf|~g3a bgaf|g/f/e fd ~e3 f|
~g3a bgeg|~f2 afdf|~g2 bg ~f2 af|1 edef gfef:|2 edef gfed||

